www/assets/icons/panorama_photosphere.svg

<svg width="24" height="24" viewBox="0 0 24 24" xmlns="http://www.w3.org/2000/svg" fill='currentColor'><path d="M21.4 14.2505C21.3 14.3005 19.23 15.1005 18.07 15.4205C17.13 15.6805 14.23 16.1505 12 16.1505C8.3 16.1505 5 15.4505 2.84 14.3505C2.76 14.3105 2.68 14.2905 2.6 14.2505V9.76049C8.62 6.92049 15.2 6.84049 21.4 9.76049V14.2505ZM12.01 20.2005C9.51 20.2005 7.14 19.0505 5.6 17.0805C9.79 18.3005 14.17 18.3105 18.42 17.0705C16.88 19.0405 14.52 20.2005 12.01 20.2005ZM12 3.80049C14.6 3.80049 16.91 5.03049 18.41 6.92049C14.31 5.73049 9.93 5.66049 5.58 6.93049C7.08 5.03049 9.4 3.80049 12 3.80049ZM22.49 8.51049C22.02 8.28049 21.56 8.07049 21.09 7.87049C19.52 4.41049 16.05 2.00049 12 2.00049C7.95 2.00049 4.47 4.41049 2.9 7.88049C2.43 8.08049 1.97 8.29049 1.5 8.51049C1.19 8.66049 1 8.99049 1 9.34049V14.6605C1 15.0105 1.19 15.3405 1.51 15.4905C1.98 15.7205 2.44 15.9305 2.9 16.1305C6.45 23.9605 17.55 23.9505 21.1 16.1305C21.57 15.9305 22.03 15.7205 22.49 15.5005C22.8 15.3305 23 15.0105 23 14.6605V9.34049C23 8.99049 22.81 8.66049 22.49 8.51049Z"/></svg>

<svg xmlns="http://www.w3.org/2000/svg" width="24" height="24" viewBox="0 0 24 24" fill='currentColor'><path d="M21.4 14.25c-.1.05-2.17.85-3.33 1.17-.94.26-3.84.73-6.07.73-3.7 0-7-.7-9.16-1.8-.08-.04-.16-.06-.24-.1V9.76c6.02-2.84 12.6-2.92 18.8 0zm-9.39 5.95c-2.5 0-4.87-1.15-6.41-3.12 4.19 1.22 8.57 1.23 12.82-.01a8.14 8.14 0 0 1-6.41 3.13M12 3.8c2.6 0 4.91 1.23 6.41 3.12-4.1-1.19-8.48-1.26-12.83.01C7.08 5.03 9.4 3.8 12 3.8m10.49 4.71c-.47-.23-.93-.44-1.4-.64C19.52 4.41 16.05 2 12 2S4.47 4.41 2.9 7.88c-.47.2-.93.41-1.4.63-.31.15-.5.48-.5.83v5.32c0 .35.19.68.51.83.47.23.93.44 1.39.64 3.55 7.83 14.65 7.82 18.2 0 .47-.2.93-.41 1.39-.63.31-.17.51-.49.51-.84V9.34a.91.91 0 0 0-.51-.83"/></svg>
